X:1
P: Donald MacGugan's Rant [2X]
C: as played by Wendy MacIsaac
C: Arr. T. Traub 7-9-03
R: reel
M: 4/4
K: D
L: 1/8
|: fe|"D" dBAF "Bm" A2 ef|"G"g2 fa "A"edBc|"D" dBAF "G"A2 dc|"A"BABc "D"d2 :|
A|"D"defe "Bm"d2 ef|"Em"g2 fa "A"edBA|"D"defe dedc|"A"BABc "D"d3 A|
"D"defe "Bm"d2 ef|"Em"g2 fa "A"edBA|"D"defg "G"afef|"A"dBAB "D"d2 |]
